public/img/tech-promo/barsup.svg

<svg fill="none" height="29" viewBox="0 0 26 29" width="26" xmlns="http://www.w3.org/2000/svg"><path clip-rule="evenodd" d="m4.61825 3.45249c.63113-1.61452 2.60503-3.45249 5.95435-3.45249.827 0 1.6061.214686 2.1067.858742.0327.042278.0609.090153.0886.137223.0111.018785.0221.037435.0333.055555.0111-.01812.0221-.03678.0332-.055562.0277-.047069.056-.09494.0886-.137216.5006-.644056 1.2797-.858742 2.1067-.858742 3.3493 0 5.3232 1.83797 5.9544 3.45249 1.728.32422 3.2862 1.48966 4.074 3.31229.8096 1.87083.7748 4.38792-.5049 7.22042.7682.953 1.2122 2.1951.9924 3.435-.2176 1.2355-1.0969 2.3747-2.5767 3.0494.272.6791.433 1.3144.4004 1.8752-.0413.7098-.333 1.3144-.7835 1.7525-.8226.7974-2.0588 1.0603-3.308 1.1041-.3852 1.0362-1.0729 1.7876-1.8455 2.2082-.877.4776-1.7802.6353-2.4026.6309-.9141-.0065-1.7215-.4425-2.2285-1.1216-.5071.6813-1.3124 1.1216-2.2286 1.1216l-.0528.0001c-.56226.0003-1.43708.0008-2.29759-.3155-.78565-.2892-1.50818-.9705-1.89774-1.9979-1.31884-.092-2.58328-.6309-3.36022-1.6123-.74865-.9442-.94016-2.2871-.34821-3.6628-1.46247-.6791-2.306881-1.8227-2.507101-3.0494-.2045727-1.2421.215454-2.4667.940161-3.4175-1.279665-2.8325-1.314486-5.34959-.5049-7.22042.78782-1.82263 2.34606-2.98807 4.07405-3.31229zm7.18905-1.91032c-.2416-.30888-.5658-.42061-1.2361-.42061-3.1252 0-4.74873 1.90588-5.04906 2.96179l-.08705.3505-.38303.05258c-1.45595.17744-2.79438 1.14134-3.48209 2.73395-.626777 1.44803-.711654 3.43712.26116 5.83592.65071-.5498 1.77804-1.2793 3.1687-1.2793 2.36564 0 3.72583 1.2793 3.72583 1.2793.16758.1315.2481.3483.20458.5586-.04353.2082-.2024.3768-.40915.4294-.20457.0526-.42438-.0175-.56149-.1818 0 0-.97498-.9639-2.95977-.9639-1.5713 0-2.92496 1.4896-2.92496 1.4896l-.01741.0176c-.01088.0131-.02176.0241-.03482.035-.63113.712-.97934 1.8008-.81829 2.7866.1654 1.0033.78782 1.9299 2.29818 2.436l.6616.2103-.36562.5958c-.73995 1.2421-.56149 2.1929.03482 2.9443s1.7084 1.2618 2.8379 1.2618h.43526l.10447.4206c.23286.942.74864 1.3407 1.39283 1.5773s1.41241.2454 1.96741.2454c.9967 0 1.6714-.6594 1.6714-1.6825v-21.50356c0-1.21144-.1937-1.88178-.4353-2.19067zm3.2237-.42061c3.1252 0 4.7487 1.90588 5.049 2.96179l.0871.3505.383.05258c1.4559.17744 2.7944 1.14134 3.4821 2.73395.6159 1.42394.7116 3.36702-.2089 5.71322-.1633.0767-.2786.2257-.3134.4031 0 0-.1132.5214-.7313 1.1216-.618.6003-1.7345 1.2443-3.8477 1.2443-.2002-.0021-.3874.103-.4896.2783-.1002.1752-.1002.3899 0 .5652.1022.1752.2894.2804.4896.2782 2.3439 0 3.789-.758 4.6138-1.5598.1415-.1358.259-.2672.3656-.4031.4614.6748.6834 1.5357.5397 2.3484-.1762.999-.8378 1.9453-2.3504 2.4536l-.6093.1928.2785.5783c.3874.7821.5136 1.3933.4875 1.8401-.0261.4469-.1806.7536-.4527 1.0165-.5331.517-1.6213.8128-2.803.8237-.7139-.2563-1.2688-.6243-1.654-1.1216-.4026-.5214-.6442-1.2158-.6442-2.2433.0043-.173-.0718-.3373-.2046-.4469-.1306-.1095-.3068-.1511-.4744-.1139-.259.0592-.4418.2936-.4353.5608 0 1.2159.3156 2.2039.888 2.9443.4592.5937 1.0685.9989 1.7584 1.2969-.2873.6813-.7813 1.1326-1.3406 1.4371-.6768.368-1.4538.4929-1.8629.4907-1.0011-.0066-1.6714-.6594-1.6714-1.6825v-21.50356c0-1.21144.1937-1.88178.4352-2.19067.2416-.30888.5659-.42061 1.2362-.42061zm-5.69089 4.48643c.02176-.00657.0457-.01314.06964-.01752.15887-.01534.31774.03943.43526.15115.11534.10954.18059.26507.17409.42718 0 .46662-.18497 1.13039-.78346 1.73501-.59848.60463-1.61264 1.06905-3.11647 1.06905-.20022.00219-.38738-.10296-.48967-.27822-.10011-.17525-.10011-.38994 0-.56519.10229-.17525.28945-.2804.48967-.27821 1.28185 0 1.94127-.3768 2.31559-.75359.37433-.3768.47008-.83465.47008-.92885-.00653-.26726.17628-.50166.43527-.56081zm7.86709 1.10409c-.0239.00439-.0479.01096-.0696.01753-.259.05915-.4418.29355-.4353.56081 0 .74702.3308 1.69996 1.1317 2.50612s2.0871 1.41956 3.8825 1.41956c.2002.0022.3874-.103.4897-.2782.1001-.1753.1001-.39 0-.5652-.1023-.1753-.2895-.2804-.4897-.2782-1.5473 0-2.4897-.50826-3.0816-1.10412-.592-.59586-.8183-1.32536-.8183-1.69996.0065-.16211-.0588-.31765-.1741-.42718-.1176-.11172-.2764-.16649-.4353-.15116zm-12.88216 10.69062c-.0087-.3089.23287-.5696.53973-.5783h.05223c.05876-.0088.11534-.0088.1741 0 1.85204.311 2.87273 1.4699 3.34281 2.5762s.47008 2.1928.47008 2.4711c.00218.2015-.10228.3899-.27639.4929-.1741.1007-.38738.1007-.56149 0-.1741-.103-.27856-.2914-.27639-.4929 0-.2804-.01741-1.1589-.38303-2.0155-.36562-.8565-1.0098-1.6605-2.5071-1.9102-.30686.0087-.56584-.2344-.57455-.5433z" fill="#fff" fill-rule="evenodd"/></svg>

<svg width="26" height="29" viewBox="0 0 26 29" fill="none" xmlns="http://www.w3.org/2000/svg">
<path fill-rule="evenodd" clip-rule="evenodd" d="M4.61825 3.45249C5.24938 1.83797 7.22328 0 10.5726 0C11.3996 0 12.1787 0.214686 12.6793 0.858742C12.712 0.90102 12.7402 0.948895 12.7679 0.995965C12.779 1.01475 12.79 1.0334 12.8012 1.05152C12.8123 1.0334 12.8233 1.01474 12.8344 0.995958C12.8621 0.948889 12.8904 0.901018 12.923 0.858742C13.4236 0.214686 14.2027 0 15.0297 0C18.379 0 20.3529 1.83797 20.9841 3.45249C22.7121 3.77671 24.2703 4.94215 25.0581 6.76478C25.8677 8.63561 25.8329 11.1527 24.5532 13.9852C25.3214 14.9382 25.7654 16.1803 25.5456 17.4202C25.328 18.6557 24.4487 19.7949 22.9689 20.4696C23.2409 21.1487 23.4019 21.784 23.3693 22.3448C23.328 23.0546 23.0363 23.6592 22.5858 24.0973C21.7632 24.8947 20.527 25.1576 19.2778 25.2014C18.8926 26.2376 18.2049 26.989 17.4323 27.4096C16.5553 27.8872 15.6521 28.0449 15.0297 28.0405C14.1156 28.034 13.3082 27.598 12.8012 26.9189C12.2941 27.6002 11.4888 28.0405 10.5726 28.0405L10.5198 28.0406C9.95754 28.0409 9.08272 28.0414 8.22221 27.7251C7.43656 27.4359 6.71403 26.7546 6.32447 25.7272C5.00563 25.6352 3.74119 25.0963 2.96425 24.1149C2.2156 23.1707 2.02409 21.8278 2.61604 20.4521C1.15357 19.773 0.309159 18.6294 0.108939 17.4027C-0.0956337 16.1606 0.324393 14.936 1.0491 13.9852C-0.230565 11.1527 -0.265386 8.63561 0.5442 6.76478C1.33202 4.94215 2.89026 3.77671 4.61825 3.45249ZM11.8073 1.54217C11.5657 1.23329 11.2415 1.12156 10.5712 1.12156C7.446 1.12156 5.82247 3.02744 5.52214 4.08335L5.43509 4.43385L5.05206 4.48643C3.59611 4.66387 2.25768 5.62777 1.56997 7.22038C0.943193 8.66841 0.858316 10.6575 1.83113 13.0563C2.48184 12.5065 3.60917 11.777 4.99983 11.777C7.36547 11.777 8.72566 13.0563 8.72566 13.0563C8.89324 13.1878 8.97376 13.4046 8.93024 13.6149C8.88671 13.8231 8.72784 13.9917 8.52109 14.0443C8.31652 14.0969 8.09671 14.0268 7.9596 13.8625C7.9596 13.8625 6.98462 12.8986 4.99983 12.8986C3.42853 12.8986 2.07487 14.3882 2.07487 14.3882L2.05746 14.4058C2.04658 14.4189 2.0357 14.4299 2.02264 14.4408C1.39151 15.1528 1.0433 16.2416 1.20435 17.2274C1.36975 18.2307 1.99217 19.1573 3.50253 19.6634L4.16413 19.8737L3.79851 20.4695C3.05856 21.7116 3.23702 22.6624 3.83333 23.4138C4.42964 24.1652 5.54173 24.6756 6.67123 24.6756H7.10649L7.21096 25.0962C7.44382 26.0382 7.9596 26.4369 8.60379 26.6735C9.24798 26.9101 10.0162 26.9189 10.5712 26.9189C11.5679 26.9189 12.2426 26.2595 12.2426 25.2364V3.73284C12.2426 2.5214 12.0489 1.85106 11.8073 1.54217ZM15.031 1.12156C18.1562 1.12156 19.7797 3.02744 20.08 4.08335L20.1671 4.43385L20.5501 4.48643C22.006 4.66387 23.3445 5.62777 24.0322 7.22038C24.6481 8.64432 24.7438 10.5874 23.8233 12.9336C23.66 13.0103 23.5447 13.1593 23.5099 13.3367C23.5099 13.3367 23.3967 13.8581 22.7786 14.4583C22.1606 15.0586 21.0441 15.7026 18.9309 15.7026C18.7307 15.7005 18.5435 15.8056 18.4413 15.9809C18.3411 16.1561 18.3411 16.3708 18.4413 16.5461C18.5435 16.7213 18.7307 16.8265 18.9309 16.8243C21.2748 16.8243 22.7199 16.0663 23.5447 15.2645C23.6862 15.1287 23.8037 14.9973 23.9103 14.8614C24.3717 15.5362 24.5937 16.3971 24.45 17.2098C24.2738 18.2088 23.6122 19.1551 22.0996 19.6634L21.4903 19.8562L21.7688 20.4345C22.1562 21.2166 22.2824 21.8278 22.2563 22.2746C22.2302 22.7215 22.0757 23.0282 21.8036 23.2911C21.2705 23.8081 20.1823 24.1039 19.0006 24.1148C18.2867 23.8585 17.7318 23.4905 17.3466 22.9932C16.944 22.4718 16.7024 21.7774 16.7024 20.7499C16.7067 20.5769 16.6306 20.4126 16.4978 20.303C16.3672 20.1935 16.191 20.1519 16.0234 20.1891C15.7644 20.2483 15.5816 20.4827 15.5881 20.7499C15.5881 21.9658 15.9037 22.9538 16.4761 23.6942C16.9353 24.2879 17.5446 24.6931 18.2345 24.9911C17.9472 25.6724 17.4532 26.1237 16.8939 26.4282C16.2171 26.7962 15.4401 26.9211 15.031 26.9189C14.0299 26.9123 13.3596 26.2595 13.3596 25.2364V3.73284C13.3596 2.5214 13.5533 1.85106 13.7948 1.54217C14.0364 1.23329 14.3607 1.12156 15.031 1.12156ZM9.34011 5.60799C9.36187 5.60142 9.38581 5.59485 9.40975 5.59047C9.56862 5.57513 9.72749 5.6299 9.84501 5.74162C9.96035 5.85116 10.0256 6.00669 10.0191 6.1688C10.0191 6.63542 9.83413 7.29919 9.23564 7.90381C8.63716 8.50844 7.623 8.97286 6.11917 8.97286C5.91895 8.97505 5.73179 8.8699 5.6295 8.69464C5.52939 8.51939 5.52939 8.3047 5.6295 8.12945C5.73179 7.9542 5.91895 7.84905 6.11917 7.85124C7.40102 7.85124 8.06044 7.47444 8.43476 7.09765C8.80909 6.72085 8.90484 6.263 8.90484 6.1688C8.89831 5.90154 9.08112 5.66714 9.34011 5.60799ZM17.2072 6.71208C17.1833 6.71647 17.1593 6.72304 17.1376 6.72961C16.8786 6.78876 16.6958 7.02316 16.7023 7.29042C16.7023 8.03744 17.0331 8.99038 17.834 9.79654C18.6349 10.6027 19.9211 11.2161 21.7165 11.2161C21.9167 11.2183 22.1039 11.1131 22.2062 10.9379C22.3063 10.7626 22.3063 10.5479 22.2062 10.3727C22.1039 10.1974 21.9167 10.0923 21.7165 10.0945C20.1692 10.0945 19.2268 9.58624 18.6349 8.99038C18.0429 8.39452 17.8166 7.66502 17.8166 7.29042C17.8231 7.12831 17.7578 6.97277 17.6425 6.86324C17.5249 6.75152 17.3661 6.69675 17.2072 6.71208ZM4.32504 17.4027C4.31634 17.0938 4.55791 16.8331 4.86477 16.8244H4.917C4.97576 16.8156 5.03234 16.8156 5.0911 16.8244C6.94314 17.1354 7.96383 18.2943 8.43391 19.4006C8.90399 20.5069 8.90399 21.5934 8.90399 21.8717C8.90617 22.0732 8.80171 22.2616 8.6276 22.3646C8.4535 22.4653 8.24022 22.4653 8.06611 22.3646C7.89201 22.2616 7.78755 22.0732 7.78972 21.8717C7.78972 21.5913 7.77231 20.7128 7.40669 19.8562C7.04107 18.9997 6.39689 18.1957 4.89959 17.946C4.59273 17.9547 4.33375 17.7116 4.32504 17.4027Z" fill="white"/>
</svg>
